static/images/icons/card_sorting.svg

<svg fill="none" height="80" viewBox="0 0 80 80" width="80" xmlns="http://www.w3.org/2000/svg"><g fill="currentColor"><path d="m78.6829 38.9611h-37.8228v-37.64686c0-.470803-.387-.856003-.86-.856003s-.86.3852-.86.856003v37.64686h-37.82282c-.473005 0-.860005.3852-.860005.856s.387.856.860005.856h37.82282v37.6469c0 .4708.387.856.86.856s.86-.3852.86-.856v-37.6469h37.8228c.473 0 .86-.3852.86-.856s-.387-.856-.86-.856z"/><path d="m76.06 3.89079h-15.3854v15.31381h15.3854zm-1.72 13.60181h-11.9454v-11.88981h11.9454z"/><path d="m58.7998 3.89079h-15.394v15.31381h15.3854v-15.31381zm-1.72 13.60181h-11.954v-11.88981h11.9454v11.88981z"/><path d="m76.06 21.0707h-15.3854v15.3139h15.3854zm-1.72 13.6104h-11.9454v-11.8984h11.9454z"/><path d="m58.7998 21.0707h-15.394v15.3139h15.3854v-15.3139zm-1.72 13.6104h-11.954v-11.8984h11.9454v11.8984z"/><path d="m36.56 21.0707h-15.394v15.3139h15.394zm-1.72 13.6104h-11.954v-11.8984h11.954z"/><path d="m19.2914 21.0707h-15.38539v15.3139h15.38539zm-1.72 13.6104h-11.94539v-11.8984h11.94539z"/><path d="m60.6746 58.5293h15.3854v-15.3224h-15.3854zm1.72-13.6104h11.9454v11.8898h-11.9454z"/><path d="m43.4058 58.5293h15.3854v-15.3224h-15.3854zm1.72-13.6104h11.9454v11.8898h-11.9454z"/><path d="m21.166 58.5293h15.394v-15.3224h-15.394zm1.72-13.6104h11.954v11.8898h-11.954z"/><path d="m3.90601 58.5293h15.38539v-15.3224h-15.38539zm1.72-13.6104h11.94539v11.8898h-11.94539z"/><path d="m21.166 75.7092h15.394v-15.3138h-15.394zm1.72-13.6018h11.954v11.8898h-11.954z"/></g></svg>

<svg width="80" height="80" viewBox="0 0 80 80" fill="none" xmlns="http://www.w3.org/2000/svg">
<path d="M78.6829 38.9611H40.8601V1.31424C40.8601 0.843437 40.4731 0.458237 40.0001 0.458237C39.5271 0.458237 39.1401 0.843437 39.1401 1.31424V38.9611H1.31728C0.844275 38.9611 0.457275 39.3463 0.457275 39.8171C0.457275 40.2879 0.844275 40.6731 1.31728 40.6731H39.1401V78.32C39.1401 78.7908 39.5271 79.176 40.0001 79.176C40.4731 79.176 40.8601 78.7908 40.8601 78.32V40.6731H78.6829C79.1559 40.6731 79.5429 40.2879 79.5429 39.8171C79.5429 39.3463 79.1559 38.9611 78.6829 38.9611Z" fill="currentColor"/>
<path d="M76.06 3.89079H60.6746V19.2046H76.06V3.89079ZM74.34 17.4926H62.3946V5.60279H74.34V17.4926Z" fill="currentColor"/>
<path d="M58.7998 3.89079H43.4058V19.2046H58.7912V3.89079H58.7998ZM57.0798 17.4926H45.1258V5.60279H57.0712V17.4926H57.0798Z" fill="currentColor"/>
<path d="M76.06 21.0707H60.6746V36.3846H76.06V21.0707ZM74.34 34.6811H62.3946V22.7827H74.34V34.6811Z" fill="currentColor"/>
<path d="M58.7998 21.0707H43.4058V36.3846H58.7912V21.0707H58.7998ZM57.0798 34.6811H45.1258V22.7827H57.0712V34.6811H57.0798Z" fill="currentColor"/>
<path d="M36.56 21.0707H21.166V36.3846H36.56V21.0707ZM34.84 34.6811H22.886V22.7827H34.84V34.6811Z" fill="currentColor"/>
<path d="M19.2914 21.0707H3.90601V36.3846H19.2914V21.0707ZM17.5714 34.6811H5.62601V22.7827H17.5714V34.6811Z" fill="currentColor"/>
<path d="M60.6746 58.5293H76.06V43.2069H60.6746V58.5293ZM62.3946 44.9189H74.34V56.8087H62.3946V44.9189Z" fill="currentColor"/>
<path d="M43.4058 58.5293H58.7912V43.2069H43.4058V58.5293ZM45.1258 44.9189H57.0712V56.8087H45.1258V44.9189Z" fill="currentColor"/>
<path d="M21.166 58.5293H36.56V43.2069H21.166V58.5293ZM22.886 44.9189H34.84V56.8087H22.886V44.9189Z" fill="currentColor"/>
<path d="M3.90601 58.5293H19.2914V43.2069H3.90601V58.5293ZM5.62601 44.9189H17.5714V56.8087H5.62601V44.9189Z" fill="currentColor"/>
<path d="M21.166 75.7092H36.56V60.3954H21.166V75.7092ZM22.886 62.1074H34.84V73.9972H22.886V62.1074Z" fill="currentColor"/>
</svg>
